X: 1
T:Grandfather Clock
M:4/4
C:
S:Roll Out the Bear'Ale
N:dance by Anton Cepernich
A:Field Town
O:
R:Reel
P:A(ABABCC)2C
K:G
I:speed 500
P:A
|: D2 | G2 FG A2 GA | B2    cB E2 AA | G2 GG FE F2 | G6           :|\
P:B
   Bc | d2 BA G2 FG | AGFE     D2 Bc | d2 BA G2 FG | A6             \
   D2 | G2 z2 A2 z2 | B2    cB E2 AA | G4    FE F2 | G6           ||\
P:C
   D2 | G2 DD EE D2 | Bz    dz Bz dz | G2 DD EE D2 | Bz  dz Bz      \
   dz | G2 z2 A2 z2 | B2    cB E2 AA | G4    FE F2 | G6           ||
